svg/dns.svg

<?xml version="1.0" encoding="UTF-8"?>
<svg xmlns="http://www.w3.org/2000/svg" xmlns:xlink="http://www.w3.org/1999/xlink" width="32" height="32" viewBox="0 0 32 32">
<path fill-rule="nonzero" fill="rgb(20.392157%, 59.607843%, 85.882353%)" fill-opacity="1" d="M 16 2.667969 C 11.078125 2.667969 6.78125 5.355469 4.472656 9.332031 L 7.726562 9.332031 C 8.925781 7.851562 10.492188 6.675781 12.316406 6.003906 C 11.898438 6.972656 11.5625 8.105469 11.308594 9.332031 L 14.050781 9.332031 C 14.6875 6.699219 15.582031 5.332031 16 5.332031 C 16.417969 5.332031 17.3125 6.699219 17.949219 9.332031 L 20.691406 9.332031 C 20.4375 8.105469 20.101562 6.972656 19.683594 6.003906 C 21.503906 6.675781 23.074219 7.851562 24.273438 9.332031 L 27.527344 9.332031 C 25.21875 5.355469 20.921875 2.667969 16 2.667969 M 4.214844 12 L 4.214844 20 L 7.058594 20 C 7.753906 19.996094 8.378906 19.835938 8.929688 19.519531 C 9.476562 19.203125 9.921875 18.734375 10.210938 18.171875 C 10.511719 17.59375 10.667969 16.933594 10.667969 16.1875 L 10.667969 15.816406 C 10.667969 15.074219 10.511719 14.410156 10.203125 13.824219 C 9.910156 13.261719 9.464844 12.792969 8.917969 12.472656 C 8.367188 12.160156 7.742188 12 7.042969 12 Z M 12.941406 12 L 12.941406 20 L 14.589844 20 L 14.589844 14.738281 L 17.796875 20 L 19.445312 20 L 19.445312 12 L 17.800781 12 L 17.800781 17.273438 L 14.589844 12 Z M 24.445312 12 C 23.894531 12 23.394531 12.09375 22.949219 12.277344 C 22.507812 12.464844 22.167969 12.722656 21.929688 13.050781 C 21.691406 13.378906 21.566406 13.773438 21.574219 14.175781 C 21.574219 14.988281 22.019531 15.628906 22.902344 16.105469 C 23.226562 16.28125 23.664062 16.460938 24.222656 16.640625 C 24.777344 16.820312 25.160156 16.992188 25.375 17.152344 C 25.589844 17.316406 25.699219 17.550781 25.699219 17.851562 C 25.699219 18.128906 25.589844 18.347656 25.375 18.503906 C 25.160156 18.65625 24.863281 18.734375 24.480469 18.734375 C 23.457031 18.734375 22.941406 18.300781 22.941406 17.441406 L 21.332031 17.441406 C 21.332031 17.945312 21.464844 18.386719 21.722656 18.769531 C 21.980469 19.148438 22.355469 19.453125 22.847656 19.671875 C 23.363281 19.894531 23.917969 20.007812 24.480469 20 C 25.34375 20 26.03125 19.808594 26.539062 19.425781 C 27.050781 19.042969 27.304688 18.511719 27.304688 17.839844 C 27.304688 17.230469 27.097656 16.726562 26.679688 16.320312 C 26.261719 15.914062 25.597656 15.574219 24.683594 15.300781 C 24.191406 15.152344 23.816406 14.988281 23.558594 14.816406 C 23.304688 14.644531 23.175781 14.433594 23.175781 14.183594 C 23.171875 13.925781 23.292969 13.679688 23.503906 13.527344 C 23.722656 13.363281 24.027344 13.277344 24.417969 13.277344 C 24.824219 13.277344 25.140625 13.378906 25.363281 13.574219 C 25.589844 13.773438 25.703125 14.050781 25.703125 14.410156 L 27.308594 14.410156 C 27.3125 13.964844 27.1875 13.527344 26.945312 13.15625 C 26.695312 12.78125 26.34375 12.484375 25.933594 12.300781 C 25.496094 12.101562 25.003906 12 24.445312 12 M 5.933594 13.335938 L 6.925781 13.335938 C 7.566406 13.335938 8.054688 13.542969 8.390625 13.964844 C 8.726562 14.382812 8.894531 15 8.894531 15.8125 L 8.894531 16.234375 C 8.886719 17.019531 8.714844 17.621094 8.375 18.042969 C 8.035156 18.464844 7.546875 18.675781 6.910156 18.675781 L 5.933594 18.675781 Z M 4.472656 22.667969 C 6.78125 26.644531 11.078125 29.332031 16 29.332031 C 20.921875 29.332031 25.21875 26.644531 27.527344 22.667969 L 24.273438 22.667969 C 23.074219 24.148438 21.507812 25.324219 19.683594 25.996094 C 20.101562 25.027344 20.433594 23.894531 20.691406 22.667969 L 17.949219 22.667969 C 17.308594 25.300781 16.414062 26.667969 15.996094 26.667969 C 15.582031 26.667969 14.6875 25.300781 14.050781 22.667969 L 11.308594 22.667969 C 11.5625 23.894531 11.898438 25.027344 12.316406 25.996094 C 10.496094 25.324219 8.925781 24.148438 7.726562 22.667969 Z M 4.472656 22.667969 "/>
</svg>

<svg role="img" viewBox="0 0 32 32" height="32" width="32" xmlns="http://www.w3.org/2000/svg"><path d="M16 2.668c-4.922 0-9.219 2.687-11.527 6.664h3.254c1.199-1.48 2.765-2.656 4.59-3.328-.419.969-.755 2.101-1.008 3.328h2.742c.636-2.633 1.531-4 1.949-4 .418 0 1.313 1.367 1.95 4h2.741c-.253-1.227-.59-2.36-1.007-3.328 1.82.672 3.39 1.848 4.59 3.328h3.253C25.22 5.355 20.922 2.668 16 2.668M4.215 12v8h2.844c.695-.004 1.32-.164 1.87-.48a3.3 3.3 0 0 0 1.282-1.348c.3-.578.457-1.238.457-1.985v-.37c0-.743-.156-1.407-.465-1.993a3.37 3.37 0 0 0-1.285-1.351C8.368 12.16 7.742 12 7.043 12Zm8.726 0v8h1.649v-5.262L17.797 20h1.648v-8h-1.644v5.273L14.59 12Zm11.504 0c-.55 0-1.05.094-1.496.277-.441.188-.781.446-1.02.774a1.853 1.853 0 0 0-.355 1.125c0 .812.446 1.453 1.328 1.93.325.175.762.355 1.32.535.555.18.938.351 1.153.511.215.164.324.399.324.7 0 .277-.11.496-.324.652-.215.152-.512.23-.895.23-1.023 0-1.539-.433-1.539-1.293h-1.609c0 .504.133.946.39 1.329.258.378.633.683 1.126.902.515.223 1.07.336 1.632.328.864 0 1.551-.191 2.06-.574.51-.383.765-.914.765-1.586 0-.61-.207-1.113-.625-1.52-.418-.406-1.082-.746-1.996-1.02-.493-.148-.868-.312-1.125-.484-.254-.171-.383-.382-.383-.632a.795.795 0 0 1 .328-.657c.219-.164.523-.25.914-.25.406 0 .723.102.945.297.227.2.34.477.34.836h1.606a2.258 2.258 0 0 0-.364-1.254 2.391 2.391 0 0 0-1.011-.855c-.438-.2-.93-.301-1.489-.301M5.934 13.336h.992c.64 0 1.129.207 1.465.629.336.418.504 1.035.504 1.848v.421c-.008.786-.18 1.387-.52 1.809-.34.422-.828.633-1.465.633h-.976Zm-1.461 9.332C6.78 26.645 11.078 29.332 16 29.332c4.922 0 9.219-2.687 11.527-6.664h-3.254c-1.199 1.48-2.765 2.656-4.59 3.328.419-.969.75-2.101 1.008-3.328H17.95c-.64 2.633-1.535 4-1.953 4-.414 0-1.309-1.367-1.945-4H11.31c.254 1.227.59 2.36 1.007 3.328-1.82-.672-3.39-1.848-4.59-3.328Zm0 0" fill="rgb(20.392157%, 59.607843%, 85.882353%)"/></svg>
